res/skins/Tango/buttons/btn_beats_earlier.svg

<!-- Created with Inkscape (http://www.inkscape.org/) -->
<svg id="svg2" width="24" height="24" version="1.1" xmlns="http://www.w3.org/2000/svg"><path id="path4757" d="m7 21h2v-9h-2z" fill="#888"/><path id="path4753" d="m15 21h-2v-12h2z" fill="#888"/><path id="path4-1" d="m9 3v3l11 1e-6v2l-11-1e-6v3l-7-4z" fill="#aaa"/><path id="path4753-2" d="m15 5h-2v-2h2z" fill="#888"/><path id="path4753-7" d="m21 21h-2v-12h2z" fill="#888"/><path id="path4753-2-0" d="m21 5h-2v-2h2z" fill="#888"/></svg>

<?xml version="1.0" encoding="UTF-8" standalone="no"?>
<!-- Created with Inkscape (http://www.inkscape.org/) -->

<svg
   xmlns:dc="http://purl.org/dc/elements/1.1/"
   xmlns:cc="http://creativecommons.org/ns#"
   xmlns:rdf="http://www.w3.org/1999/02/22-rdf-syntax-ns#"
   xmlns:svg="http://www.w3.org/2000/svg"
   xmlns="http://www.w3.org/2000/svg"
   version="1.1"
   width="24"
   height="24"
   id="svg2">
  <metadata
     id="metadata14">
    <rdf:RDF>
      <cc:Work
         rdf:about="">
        <dc:format>image/svg+xml</dc:format>
        <dc:type
           rdf:resource="http://purl.org/dc/dcmitype/StillImage" />
        <dc:title></dc:title>
      </cc:Work>
    </rdf:RDF>
  </metadata>
  <defs
     id="defs12" />
  <path
     d="m 7,21 2,0 0,-9 -2,0 z"
     id="path4757"
     style="fill:#888888;fill-opacity:1" />
  <path
     d="M 15,21 H 13 L 13,9 15,9 z"
     id="path4753"
     style="fill:#888888;fill-opacity:1" />
  <path
     d="m 9.000001,3 0,3 L 20,6.000001 20,8 9.000001,7.999999 9.000001,11 2,7 z"
     id="path4-1"
     style="fill:#aaaaaa;fill-opacity:1" />
  <path
     d="m 15,5 h -2 l 0,-2 2,0 z"
     id="path4753-2"
     style="fill:#888888;fill-opacity:1" />
  <path
     d="M 21,21 H 19 L 19,9 21,9 z"
     id="path4753-7"
     style="fill:#888888;fill-opacity:1" />
  <path
     d="m 21,5 h -2 l 0,-2 2,0 z"
     id="path4753-2-0"
     style="fill:#888888;fill-opacity:1" />
</svg>
